client/public/assets/icons/action/new_custom27.svg

<?xml version="1.0"?><svg xmlns="http://www.w3.org/2000/svg" width="52" height="52" viewBox="0 0 52 52"><g fill="#fff"><path d="m6.5 35.6h39c0.8 0 1.5-0.7 1.5-1.5v-23.7c0-2.4-2-4.4-4.5-4.4h-33c-2.5 0-4.5 2-4.5 4.4v23.7c0 0.9 0.7 1.5 1.5 1.5z m3-23.7c0-0.8 0.7-1.5 1.5-1.5h30c0.8 0 1.5 0.7 1.5 1.5v17.8c0 0.8-0.7 1.5-1.5 1.5h-30c-0.8 0-1.5-0.7-1.5-1.5v-17.8z m39 28.2h-16.5c-0.8 0-1.5 0.7-1.5 1.5s-0.7 1.5-1.5 1.5h-6c-0.8 0-1.5-0.7-1.5-1.5s-0.7-1.5-1.5-1.5h-16.5c-0.8 0-1.5 0.7-1.5 1.5 0 2.4 2 4.4 4.5 4.4h39c2.5 0 4.5-2 4.5-4.4 0-0.9-0.7-1.5-1.5-1.5z"></path></g></svg>

<?xml version="1.0" encoding="utf-8"?>
<!-- Generator: Adobe Illustrator 18.1.1, SVG Export Plug-In . SVG Version: 6.00 Build 0)  -->
<svg version="1.1" id="Layer_1" xmlns="http://www.w3.org/2000/svg" xmlns:xlink="http://www.w3.org/1999/xlink" x="0px" y="0px"
	 width="52px" height="52px" viewBox="0 0 52 52" enable-background="new 0 0 52 52" xml:space="preserve">
<g>
	<path fill="#FFFFFF" d="M6.5,35.6h39c0.8,0,1.5-0.7,1.5-1.5V10.4C47,8,45,6,42.5,6h-33C7,6,5,8,5,10.4v23.7C5,35,5.7,35.6,6.5,35.6
		z M9.5,11.9c0-0.8,0.7-1.5,1.5-1.5h30c0.8,0,1.5,0.7,1.5,1.5v17.8c0,0.8-0.7,1.5-1.5,1.5H11c-0.8,0-1.5-0.7-1.5-1.5V11.9z"/>
	<path fill="#FFFFFF" d="M48.5,40.1H32c-0.8,0-1.5,0.7-1.5,1.5l0,0c0,0.8-0.7,1.5-1.5,1.5h-6c-0.8,0-1.5-0.7-1.5-1.5l0,0
		c0-0.8-0.7-1.5-1.5-1.5H3.5c-0.8,0-1.5,0.7-1.5,1.5C2,44,4,46,6.5,46h39c2.5,0,4.5-2,4.5-4.4C50,40.7,49.3,40.1,48.5,40.1z"/>
</g>
</svg>
